svg/icon/mda.svg

<svg height="32" viewBox="0 0 32 32" width="32" xmlns="http://www.w3.org/2000/svg" xmlns:xlink="http://www.w3.org/1999/xlink"><defs><linearGradient id="a" x1="50%" x2="50%" y1="0%" y2="100%"><stop offset="0" stop-color="#fff" stop-opacity=".5"/><stop offset="1" stop-opacity=".5"/></linearGradient><circle id="b" cx="16" cy="15" r="15"/><filter id="c" height="111.7%" width="111.7%" x="-5.8%" y="-4.2%"><feOffset dy=".5" in="SourceAlpha" result="shadowOffsetOuter1"/><feGaussianBlur in="shadowOffsetOuter1" result="shadowBlurOuter1" stdDeviation=".5"/><feComposite in="shadowBlurOuter1" in2="SourceAlpha" operator="out" result="shadowBlurOuter1"/><feColorMatrix in="shadowBlurOuter1" values="0 0 0 0 0   0 0 0 0 0   0 0 0 0 0  0 0 0 0.199473505 0"/></filter><path id="d" d="m20.6626577 6.9917c1.2159673 1.3001 1.8376354 2.9322 1.8373422 4.8409 0 1.9364-.6213749 3.5686-1.8376354 4.8686-.9729693 1.0234-2.135176 1.6321-3.4865222 1.8534v1.1342h2.7564531v1.2448h-2.7838222v.6639h2.7838222v1.1618h-2.7564531v2.2407h-2.3513914v-2.2407h-2.7297683v-1.1618h2.7564531v-.6639h-2.7564531v-1.2448h2.7297683v-1.1618c-1.3243682-.2213-2.4865749-.8299-3.4595442-1.8534-1.2432385-1.3001-1.8649067-2.9322-1.8649067-4.8686 0-1.9641.5945924-3.5961 1.8376354-4.8686 1.2435318-1.3002 2.7841154-1.9364 4.6760002-1.9364 1.8649067 0 3.4054903.6362 4.6490221 1.9917zm-2.5408242 7.3859c.5134627-.6639.7838297-1.5214.7838297-2.5724 0-1.0236-.2702692-1.8811-.8378835-2.545-.5406363-.6915-1.2428476-1.0235-2.0541441-1.0235-.8378836 0-1.5400949.332-2.0811221.9959-.5410273.6639-.8112965 1.4938-.8112965 2.545 0 1.0786.270758 1.936.8112965 2.6s1.2432385.9959 2.0811221.9959c.8649593 0 1.5946375-.332 2.1081979-.9959z"/><filter id="e" height="117.5%" width="126.9%" x="-13.5%" y="-6.2%"><feOffset dy=".5" in="SourceAlpha" result="shadowOffsetOuter1"/><feGaussianBlur in="shadowOffsetOuter1" result="shadowBlurOuter1" stdDeviation=".5"/><feColorMatrix in="shadowBlurOuter1" values="0 0 0 0 0   0 0 0 0 0   0 0 0 0 0  0 0 0 0.204257246 0"/></filter></defs><g fill="none" fill-rule="nonzero"><g><use fill="#000" filter="url(#c)" xlink:href="#b"/><use fill="#01a64f" fill-rule="evenodd" xlink:href="#b"/><use fill="url(#a)" fill-rule="evenodd" xlink:href="#b"/><circle cx="16" cy="15" r="14.5" stroke="#000" stroke-opacity=".097"/></g><g><use fill="#000" filter="url(#e)" xlink:href="#d"/><use fill="#fff" fill-rule="evenodd" xlink:href="#d"/></g></g></svg>

<svg xmlns="http://www.w3.org/2000/svg" xmlns:xlink="http://www.w3.org/1999/xlink" width="32" height="32" viewBox="0 0 32 32">
  <defs>
    <linearGradient id="mda-c" x1="50%" x2="50%" y1="0%" y2="100%">
      <stop offset="0%" stop-color="#FFF" stop-opacity=".5"/>
      <stop offset="100%" stop-opacity=".5"/>
    </linearGradient>
    <circle id="mda-b" cx="16" cy="15" r="15"/>
    <filter id="mda-a" width="111.7%" height="111.7%" x="-5.8%" y="-4.2%" filterUnits="objectBoundingBox">
      <feOffset dy=".5" in="SourceAlpha" result="shadowOffsetOuter1"/>
      <feGaussianBlur in="shadowOffsetOuter1" result="shadowBlurOuter1" stdDeviation=".5"/>
      <feComposite in="shadowBlurOuter1" in2="SourceAlpha" operator="out" result="shadowBlurOuter1"/>
      <feColorMatrix in="shadowBlurOuter1" values="0 0 0 0 0   0 0 0 0 0   0 0 0 0 0  0 0 0 0.199473505 0"/>
    </filter>
    <path id="mda-e" d="M20.6626577,6.9917 C21.878625,8.2918 22.5002931,9.9239 22.4999999,11.8326 C22.4999999,13.769 21.878625,15.4012 20.6623645,16.7012 C19.6893952,17.7246 18.5271885,18.3333 17.1758423,18.5546 L17.1758423,19.6888 L19.9322954,19.6888 L19.9322954,20.9336 L17.1484732,20.9336 L17.1484732,21.5975 L19.9322954,21.5975 L19.9322954,22.7593 L17.1758423,22.7593 L17.1758423,25 L14.8244509,25 L14.8244509,22.7593 L12.0946826,22.7593 L12.0946826,21.5975 L14.8511357,21.5975 L14.8511357,20.9336 L12.0946826,20.9336 L12.0946826,19.6888 L14.8244509,19.6888 L14.8244509,18.527 C13.5000827,18.3057 12.337876,17.6971 11.3649067,16.6736 C10.1216682,15.3735 9.5,13.7414 9.5,11.805 C9.5,9.8409 10.0945924,8.2089 11.3376354,6.9364 C12.5811672,5.6362 14.1217508,5 16.0136356,5 C17.8785423,5 19.4191259,5.6362 20.6626577,6.9917 Z M18.1218335,14.3776 C18.6352962,13.7137 18.9056632,12.8562 18.9056632,11.8052 C18.9056632,10.7816 18.635394,9.9241 18.0677797,9.2602 C17.5271434,8.5687 16.8249321,8.2367 16.0136356,8.2367 C15.175752,8.2367 14.4735407,8.5687 13.9325135,9.2326 C13.3914862,9.8965 13.121217,10.7264 13.121217,11.7776 C13.121217,12.8562 13.391975,13.7136 13.9325135,14.3776 C14.473052,15.0416 15.175752,15.3735 16.0136356,15.3735 C16.8785949,15.3735 17.6082731,15.0415 18.1218335,14.3776 Z"/>
    <filter id="mda-d" width="126.9%" height="117.5%" x="-13.5%" y="-6.2%" filterUnits="objectBoundingBox">
      <feOffset dy=".5" in="SourceAlpha" result="shadowOffsetOuter1"/>
      <feGaussianBlur in="shadowOffsetOuter1" result="shadowBlurOuter1" stdDeviation=".5"/>
      <feColorMatrix in="shadowBlurOuter1" values="0 0 0 0 0   0 0 0 0 0   0 0 0 0 0  0 0 0 0.204257246 0"/>
    </filter>
  </defs>
  <g fill="none" fill-rule="evenodd">
    <g fill-rule="nonzero">
      <use fill="#000" filter="url(#mda-a)" xlink:href="#mda-b"/>
      <use fill="#01A64F" fill-rule="evenodd" xlink:href="#mda-b"/>
      <use fill="url(#mda-c)" fill-rule="evenodd" style="mix-blend-mode:soft-light" xlink:href="#mda-b"/>
      <circle cx="16" cy="15" r="14.5" stroke="#000" stroke-opacity=".097"/>
    </g>
    <g fill-rule="nonzero">
      <use fill="#000" filter="url(#mda-d)" xlink:href="#mda-e"/>
      <use fill="#FFF" fill-rule="evenodd" xlink:href="#mda-e"/>
    </g>
  </g>
</svg>
